packages/core/src/svgs/networks/branded/ronin.svg

<svg width="24" height="24" viewBox="0 0 24 24" fill="none" xmlns="http://www.w3.org/2000/svg">
<path fill-rule="evenodd" clip-rule="evenodd" d="M4.85742 3.53853V15.8774C4.85757 16.1079 4.90968 16.3354 5.00992 16.5431C5.11017 16.7507 5.25597 16.9335 5.43657 17.0775L11.2763 21.7469C11.4818 21.9108 11.737 22 12.0003 22C12.2634 22 12.5188 21.9108 12.7243 21.7469L18.5639 17.0775C18.7445 16.9335 18.8904 16.7507 18.9905 16.5431C19.0909 16.3354 19.143 16.1079 19.1432 15.8774V3.53853C19.1432 3.13048 18.9804 2.73915 18.6908 2.45062C18.4012 2.16209 18.0083 2 17.5987 2H6.40182C5.99222 2 5.5994 2.16209 5.30977 2.45062C5.02013 2.73915 4.85742 3.13048 4.85742 3.53853Z" fill="#004DE5"/>
<path d="M16.1638 9.12959V6.44033C16.1638 6.08372 16.0235 5.7417 15.7735 5.48954C15.5235 5.23737 15.1845 5.0957 14.831 5.0957H9.16593C8.81242 5.0957 8.47338 5.23737 8.22341 5.48954C7.97343 5.7417 7.83301 6.08372 7.83301 6.44033V14.2434C7.83313 14.4449 7.87811 14.6436 7.96463 14.8252C8.05115 15.0067 8.177 15.1662 8.33286 15.2922L10.3956 16.9629C10.4201 16.983 10.4497 16.9956 10.481 16.9992C10.5123 17.003 10.5441 16.9977 10.5725 16.984C10.601 16.9702 10.625 16.9487 10.6417 16.9217C10.6585 16.8949 10.6672 16.8636 10.6672 16.8319V11.3146C10.6672 11.2701 10.6847 11.2272 10.716 11.1957C10.7472 11.1642 10.7896 11.1466 10.8338 11.1466H12.3333C12.5985 11.1466 12.8527 11.2527 13.0402 11.442C13.2277 11.631 13.333 11.8875 13.333 12.155V16.8319C13.3331 16.8635 13.342 16.8945 13.3587 16.9212C13.3753 16.948 13.3992 16.9695 13.4276 16.9832C13.4558 16.997 13.4873 17.0024 13.5186 16.9987C13.5497 16.9951 13.5793 16.9827 13.6038 16.9629L15.6665 15.2922C15.8223 15.1662 15.9482 15.0067 16.0347 14.8252C16.1212 14.6436 16.1662 14.4449 16.1663 14.2434V11.8189C16.1663 11.4622 16.026 11.1202 15.776 10.868C15.526 10.6159 15.187 10.4742 14.8335 10.4742C15.1865 10.4736 15.5248 10.3316 15.7743 10.0795C16.0237 9.82735 16.1638 9.48577 16.1638 9.12959ZM12.3317 9.80198H10.8321C10.788 9.80198 10.7456 9.78423 10.7143 9.75273C10.6831 9.7211 10.6655 9.67848 10.6655 9.63385V6.6084C10.6655 6.56384 10.6831 6.52108 10.7143 6.48957C10.7456 6.45804 10.788 6.44033 10.8321 6.44033H13.1647C13.209 6.44033 13.2513 6.45804 13.2826 6.48957C13.3138 6.52108 13.3313 6.56384 13.3313 6.6084V8.79343C13.3313 9.06089 13.2261 9.31739 13.0386 9.5066C12.8511 9.6956 12.5968 9.80198 12.3317 9.80198Z" fill="url(#paint0_linear_376_10585)"/>
<defs>
<linearGradient id="paint0_linear_376_10585" x1="11.9997" y1="5.09573" x2="11.9997" y2="17.0005" gradientUnits="userSpaceOnUse">
<stop stop-color="white"/>
<stop offset="0.458333" stop-color="white"/>
<stop offset="1" stop-color="white"/>
</linearGradient>
</defs>
</svg>

<svg xmlns="http://www.w3.org/2000/svg" width="24" height="24" fill="none" viewBox="0 0 24 24">
    <path fill="#004DE5" fill-rule="evenodd" d="M4.857 3.539v12.338a1.53 1.53 0 0 0 .58 1.2l5.84 4.67a1.16 1.16 0 0 0 1.447 0l5.84-4.67a1.54 1.54 0 0 0 .58-1.2V3.54c0-.409-.164-.8-.453-1.088A1.55 1.55 0 0 0 17.599 2H6.402a1.54 1.54 0 0 0-1.545 1.539" clip-rule="evenodd"/>
    <path fill="url(#ronin__a)" d="M16.164 9.13V6.44c0-.356-.14-.698-.39-.95a1.33 1.33 0 0 0-.943-.394H9.166c-.354 0-.693.141-.943.394a1.35 1.35 0 0 0-.39.95v7.803a1.35 1.35 0 0 0 .5 1.05l2.063 1.67a.16.16 0 0 0 .176.021.17.17 0 0 0 .095-.152v-5.517c0-.045.018-.088.049-.12a.17.17 0 0 1 .118-.048h1.5c.264 0 .519.106.706.295.188.189.293.445.293.713v4.677a.17.17 0 0 0 .095.151.16.16 0 0 0 .176-.02l2.063-1.67a1.34 1.34 0 0 0 .5-1.05V11.82a1.35 1.35 0 0 0-.391-.951 1.33 1.33 0 0 0-.942-.394c.353 0 .69-.142.94-.395.25-.252.39-.593.39-.95m-3.832.672h-1.5a.166.166 0 0 1-.167-.168V6.608c0-.044.018-.087.05-.118a.17.17 0 0 1 .117-.05h2.333a.166.166 0 0 1 .166.168v2.185c0 .268-.105.524-.292.714a1 1 0 0 1-.707.295"/>
    <defs>
        <linearGradient id="ronin__a" x1="12" x2="12" y1="5.096" y2="17" gradientUnits="userSpaceOnUse">
            <stop stop-color="#fff"/>
            <stop offset=".458" stop-color="#fff"/>
            <stop offset="1" stop-color="#fff"/>
        </linearGradient>
    </defs>
</svg>
